X: 387
T:The Honeymoon Reel
M:4/4
L:1/8
R:reel
Z:Julien Coupey
K:D
B~G3 DGBG|Bdef gedc|B~G3 DGBG|egdB A2dc|
B~G3 DGBG|Bdef ~g3a|b2af gfed|egdB A2dc:|
~e3f edBA|Bdef gedc|B~G3 DGBG|egdB A2Bd|
edgd edBG|Bdef ~g3a|b2af gfed|egdB A2Bd:|
<end>
<start>
